X:1
T:9 Lieder und Gesänge, Op.63
T:Heimweh I
T:7. Heimweh I
T:Johannes Brahms
T:Klaus Groth
T:9 Lieder und Gesänge, Op.63
T:Creative Commons copyright waiver (CC0 1.0 Universal) 
T:Creative Commons copyright waiver (CC0 1.0 Universal) 
T:Creative Commons copyright waiver (CC0 1.0 Universal) 
C:Johannes Brahms
Z:Klaus Groth
Z:Creative Commons copyright waiver (CC0 1.0 Universal)
Z:
L:1/8
M:2/4
K:G
V:1 treble nm="Singstimme\nVoice"
V:1
 z/ | z4 | z4 | z4 | z2 z e | d B G F | (E>G) c e | e3/2 e/ (=f/e/) (c/B/) | A ^f (g/d/) (c/B/) | %9
w: ||||Wie|trau- lich war das|Fleck- * chen, wo|mei- ne Wie- * ge _|ding, wo mei- * ne *|
 (A/c/) (B/A/) A2 | z2 z D | F A d A | (_B>=F) F d | =f3/2 ^c/ e3/2 d/ | (dA) z d || %15
w: Wie- * ge * ging!|Kein|Bäum- chen war, kein|Heck- * chen, das|nicht voll Träu- me|hing, _ das|
[M:3/4] (^f/^c/) (e/d/) d3/2 A/ A G ||[M:2/4] F2 z2 | z4 | z4 | z2 z e | d B G F | (E>G) c e | %22
w: nicht, * das * nicht voll Träu- me|hing.|||Wo|nur ein Blüm- chen|blüh- * te, da|
 e3/2 e/ (=f/e/) (c/B/) | A ^f (g/d/) (c/B/) | (A/c/) (B/A/) A2 | z2 z D | F A d A | (_B>=F) F d | %28
w: blüh- ten gleich * sie *|mit, da blüh- * ten *|gleich * sie * mit,|und|Al- les sang und|glüh- * te mir|
 =f3/2 ^c/ e3/2 d/ | (dA) z d ||[M:3/4] (^f/^c/) (e/d/) d3/2 A/ A G ||[M:2/4] F2 z2 | z4 | z4 | %34
w: zu bei je- dem|Schritt, * mir|zu _ bei * je- dem, je- dem|Schritt.|||
 z2 z e | d B G F | (E>G) c e | e/ e/ (=f>e) (c/B/) | A ^f (g/d/) (B/G/) | F E D2 | z2 z D | %41
w: Ich|wä- re nicht ge-|gan- * gen, nicht|für die gan- * ze *|Welt, nicht für * die *|gan- ze Welt!|Mein|
 F A ^c d | (_e>_B) B g | ^c3/2 c/ e3/2 =c/ | =B2 z g | ^c3/2 c/ f e | (ed) (dF) | G2 z2 | z4 | %49
w: Seh- nen, mein Ver-|lan- * gen, hier|ruht's in Wald und|Feld, hier|ruht's, hier ruht's in|Wald * und _|Feld.||
 z4 |] %50
w: |

